kora/actions/scalable/roll.svg

<svg xmlns="http://www.w3.org/2000/svg" style="fill-rule:evenodd;clip-rule:evenodd;stroke-linejoin:round;stroke-miterlimit:2" width="100%" height="100%" version="1.1" viewBox="0 0 16 16" xml:space="preserve">
 <defs>
  <style id="current-color-scheme" type="text/css">
   .ColorScheme-Text { color:#dfdfdf; } .ColorScheme-Highlight { color:#4285f4; } .ColorScheme-NeutralText { color:#ff9800; } .ColorScheme-PositiveText { color:#4caf50; } .ColorScheme-NegativeText { color:#f44336; }
  </style>
 </defs>
 <path style="fill:currentColor;" class="ColorScheme-Text" d="M3,1c-1.108,0 -2,0.892 -2,2l0,10c0,1.108 0.892,2 2,2l10,0c1.108,0 2,-0.892 2,-2l0,-10c0,-1.108 -0.892,-2 -2,-2l-10,0Zm-1.004,0.996l12.008,0l-0,12.008l-12.008,-0l0,-12.008Zm3.004,2.004c-0.549,0 -1,0.451 -1,1c0,0.549 0.451,1 1,1c0.549,0 1,-0.451 1,-1c0,-0.549 -0.451,-1 -1,-1Zm6,0c-0.549,0 -1,0.451 -1,1c0,0.549 0.451,1 1,1c0.549,0 1,-0.451 1,-1c0,-0.549 -0.451,-1 -1,-1Zm-3,3c-0.549,0 -1,0.451 -1,1c0,0.549 0.451,1 1,1c0.549,0 1,-0.451 1,-1c0,-0.549 -0.451,-1 -1,-1Zm-3,3c-0.549,0 -1,0.451 -1,1c0,0.549 0.451,1 1,1c0.549,0 1,-0.451 1,-1c0,-0.549 -0.451,-1 -1,-1Zm6,0c-0.549,0 -1,0.451 -1,1c0,0.549 0.451,1 1,1c0.549,0 1,-0.451 1,-1c0,-0.549 -0.451,-1 -1,-1Z"/>
</svg>

<svg xmlns="http://www.w3.org/2000/svg" width="16" height="16" viewBox="0 0 16 16">
 <defs>
  <style id="current-color-scheme" type="text/css">
   .ColorScheme-Text { color:#dfdfdf; } .ColorScheme-Highlight { color:#4285f4; }
  </style>
 </defs>
 <path style="fill:currentColor" class="ColorScheme-Text" d="M 3 1 C 1.892 1 1 1.892 1 3 L 1 13 C 1 14.108 1.892 15 3 15 L 13 15 C 14.108 15 15 14.108 15 13 L 15 3 C 15 1.892 14.108 1 13 1 L 3 1 z M 3 3 L 13 3 L 13 13 L 3 13 L 3 3 z M 5 4 A 1 1 0 0 0 4 5 A 1 1 0 0 0 5 6 A 1 1 0 0 0 6 5 A 1 1 0 0 0 5 4 z M 11 4 A 1 1 0 0 0 10 5 A 1 1 0 0 0 11 6 A 1 1 0 0 0 12 5 A 1 1 0 0 0 11 4 z M 8 7 A 1 1 0 0 0 7 8 A 1 1 0 0 0 8 9 A 1 1 0 0 0 9 8 A 1 1 0 0 0 8 7 z M 5 10 A 1 1 0 0 0 4 11 A 1 1 0 0 0 5 12 A 1 1 0 0 0 6 11 A 1 1 0 0 0 5 10 z M 11 10 A 1 1 0 0 0 10 11 A 1 1 0 0 0 11 12 A 1 1 0 0 0 12 11 A 1 1 0 0 0 11 10 z"/>
</svg>
